X: 367
T: James O'Brien
M:3/4
L:1/4
B:O'Neill's 367
N:"Moderate."
N:"collected by F. O'Neill."
N:All ornaments (~) are trills.
Z:Transcribed by Chris Falt, cfalt@trytel.com
K:G
d|(edB)|(GAB)|EGE|D2(E/2F/2)|
.G(FG)|(~edB)|A3-|A2d|
(edB)|(GAB)|(EGc)|(e2f/2e/2)|
(dBG)|(AEF)|G3-|G2||
d|ede|(~gfe)|fed|(B2d)|
(~ede)|(~gfe)|g3-|g2(g/2f/2)|
(~edB)|(GAB)|(EGc)|e2f/2e/2|
(dBG)|AEG|G3-|G2||


